!!! OTL: Berkowitz497
!!! Chapter: 1
!!! Section: IV
!!! Page: 124
!!! Mode: 
!!! Encoder: DJB
**kern
*staff1
*I"Piano
=1-
*clefC3
*k[f#c#g#]
*f#:
*M6/8
8c#\L
16d#\L
16e#\
16f#\
16g#\JJ
8a\L
8a\
8a\J
=2
4B#/
8a\
4g#\
8Bn/
=3
4A#/
8gn\
4f#\
8An/
=4
4G#/
8f#\
4G#/
8e#\
=5
16r
16e#\LL
16f#\
16g#\
16a\
16b\JJ
8cc#\L
8cc#\
8cc#\J
=6
4d#\
8cc#\
4.b\
=7
!!linebreak:original
4d\
8b\
8.a\L
16g#\L
16f#\
16g#\JJ
=8
4c#\
8e#\
4.f#\
==
*-
